!!!!SEGMENT: pl-sa--351-a-vii-111--004_elsner-jozef--missa-in-f-sanctus.krn
!!!cenid: 18xx:1268
!!!COM: Elsner, Józef
!!!COM-rismID: pe30000957
!!!CDT: 1769/06/01-1854/04/18
!!!CNT: Polish
!!!OPR: Missa in F
!!!OTL: Sanctus
!!!OMV: 004
!!!PDT: 1828
!!!AGN: Sacred; Mass
!!!SMS-siglum: PL-SA
!!!SMS-shelfmark: 351/A VII 111
!!!SMS-shelfwork: 001-004 M
!!!SMS-variant:
!!!SMS-altvar:
!!!NIFC-rismSourceID: 1001070170
!!!NIFC-islandoraID:
!!!URL-pdf-islandora:
!!!URL-scan: https://bc.bdsandomierz.pl/dlibra/publication/1655/edition/1623/content @EN{Scan on Cyfrowa Biblioteka Diecezjalna w Sandomierzu} @PL{Skany w portalu Cyfrowa Biblioteka Diecezjalna w Sandomierzu}
!!!ONB-nifc: UWAGA: części Mszy: 1. Kyrie, 2. Gloria, 3. Credo, 4. Sanctus, 5. Benedictus, 6. Agnus Dei
!!!AIN: 1 alto 1 bass 1 soprn 1 tenor
!!!key: F
**kern	**text	**dynam	**kern	**text	**kern	**text	**kern	**text	**dynam
*part4	*part4	*part4	*part3	*part3	*part2	*part2	*part1	*part1	*part1
*staff4	*staff4	*	*staff3	*staff3	*staff2	*staff2	*staff1	*staff1	*
*I"Baſso.	*	*	*I"Tenore.	*	*I"Alto.	*	*I"Canto.	*	*
*I'B	*	*	*I'T	*	*I'A	*	*I'S	*	*
*ICvox	*	*	*ICvox	*	*ICvox	*	*ICvox	*	*
*Ibass	*	*	*Itenor	*	*Ialto	*	*Isoprn	*	*
*clefF4	*	*	*clefC3	*	*clefC4	*	*clefC1	*	*
*k[b-]	*	*	*k[b-]	*	*k[b-]	*	*k[b-]	*	*
*F:	*	*	*F:	*	*F:	*	*F:	*	*
*M3/4	*	*	*M3/4	*	*M3/4	*	*M3/4	*	*
=1	=1	=1	=1	=1	=1	=1	=1	=1	=1
!LO:TX:a:B:t=Andante.	!	!	!	!	!	!	!	!	!
!LO:TX:t=P:problem= na źródle widoczne obliczenia zapisane piórem	!	!	!	!	!	!	!	!	!
*	*	*	*2\right	*	*	*	*	*	*
!	!	!	!LO:TX:a:B:t=Andante	!	!	!	!	!	!
!	!	!	!LO:TX:t=P:problem= all 4\mixed	!	!	!	!	!	!
!	!	!	!	!	!LO:TX:a:B:t=Andante	!	!	!	!
!	!	!	!	!	!	!	!LO:TX:a:B:t=Andante.	!	!
2F\	San-	.	2f\	San-	4A\	San-	(4f/	San-	.
.	.	.	.	.	(4c\	.	4a/	.	.
4C/	.	.	4e\	.	4B-\)	.	4g/)	.	.
=2	=2	=2	=2	=2	=2	=2	=2	=2	=2
*	*	*	*	*	*2\right	*	*	*	*
2D/	-ctus	.	2f\	-ctus	2A\	-ctus	2f/	-ctus	.
4r	.	.	4r	.	4r	.	4r	.	.
=3	=3	=3	=3	=3	=3	=3	=3	=3	=3
*2\right	*	*	*	*	*	*	*	*	*
2G\	San-	.	2g\	San-	4B-\	San-	(4g\	San-	.
.	.	.	.	.	(4d\	.	4b-\	.	.
4D\	.	.	4f#X\	.	4c\)	.	4a\)	.	.
=4	=4	=4	=4	=4	=4	=4	=4	=4	=4
*	*	*	*	*	*	*	*2\right	*	*
2E-X\	-ctus	.	2g\	-ctus	2B-\	-ctus	2g\	-ctus	.
4r	.	.	4r	.	4r	.	4r	.	.
!	!	!	!	!	!	!	!LO:LB:g=original	!	!
=5	=5	=5	=5	=5	=5	=5	=5	=5	=5
2E-X\	San-	.	2.f\	San-	(4c\	San-	(4a\	San-	.
.	.	.	.	.	4A\	.	4cc\	.	.
4D\	.	.	.	.	4B-\)	.	4b-\)	.	.
=6	=6	=6	=6	=6	=6	=6	=6	=6	=6
2C/	-ctus	.	8f\L	.	2c\	-ctus	(8a\L	.	.
.	.	.	8g\	.	.	.	8b-\	.	.
.	.	.	8a\	.	.	.	8cc\	.	.
.	.	.	8b-\	.	.	.	8dd\)	.	.
4r	.	.	(8g\	-ctus	4r	.	(8ee\	-ctus	.
.	.	.	8a\J)	.	.	.	8ff\J)	.	.
!	!	!	!	!	!LO:LB:g=original	!	!	!	!
!LO:LB:g=original	!	!	!	!	!	!	!	!	!
=7	=7	=7	=7	=7	=7	=7	=7	=7	=7
4.C/	Do-	.	4.g\	Do-	4.B-\	Do-	4.ee^\	Do-	.
8C/	-mi-	.	8g\	-mi-	8B-\	-mi-	8ee\	-mi-	.
4C#X/	-nus	.	4g\	-nus	4B-\	-nus	4ee\	-nus	.
!	!	!	!LO:LB:g=original	!	!	!	!	!	!
=8	=8	=8	=8	=8	=8	=8	=8	=8	=8
2.D/	De-	.	2.f\	De-	2.A\	De-	2ee\	Do-	.
.	.	.	.	.	.	.	4dd\	.	.
=9	=9	=9	=9	=9	=9	=9	=9	=9	=9
2.AA/	-us.	.	2.e\	-us	2.A\	-us.	2dd\	.	.
.	.	.	.	.	.	.	4cc#X\	-us	.
=10	=10	=10	=10	=10	=10	=10	=10	=10	=10
2BB-/	De-	.	2d\	De-	2F/	De-	2dd\	De-	.
4GG/	-us	.	(4b-\	-us	4c\	-us	4ee\	-us	.
=11	=11	=11	=11	=11	=11	=11	=11	=11	=11
4FF/	Sa-	.	2a\)	Sa-	[2.c\	Sa-	2.ff^\	Sa-	.
4F\	.	.	.	.	.	.	.	.	.
4E\	.	.	4g\	.	.	.	.	.	.
!	!	!	!	!	!	!	!LO:LB:g=original	!	!
=12	=12	=12	=12	=12	=12	=12	=12	=12	=12
2D/	.	.	2f\	.	4c\]	.	2ff\	.	.
.	.	.	.	.	4A\	.	.	.	.
4D/	-ba-	.	4f\	-ba-	4Bn\	-ba-	4ff\	-ba-	.
=13	=13	=13	=13	=13	=13	=13	=13	=13	=13
2.C;/	-oth.	.	2.g;\	-oth	2c;\	-oth	2.ee;\	-oth	.
.	.	.	.	.	4r	.	.	.	.
!	!	!	!	!	!LO:LB:g=original	!	!	!	!
=14||	=14||	=14||	=14||	=14||	=14||	=14||	=14||	=14||	=14||
!LO:TX:a:B:t=piu allegro	!	!	!LO:TX:a:B:t=Piu. Allegro.	!	!LO:TX:a:B:t=Piu allegro.	!	!LO:TX:a:B:t=Piu Allegro.	!	!
(4.c\	Ple-	.	4.cc\	Ple-	4.c\	Ple-	(4.cc\	Ple-	.
8B-\)	.	.	8b-\	.	8B-\	.	8b-\)	.	.
8A\	-ni	.	8a\	-ni	8A\	-ni	8a\	-ni	.
8G\	sunt	.	8g\	sunt	8G/	sunt	8g\	sunt	.
!LO:LB:g=original	!	!	!	!	!	!	!	!	!
=15	=15	=15	=15	=15	=15	=15	=15	=15	=15
4F\	coe-	.	4f\	coe-	4F/	coe-	4f\	cae-	.
4F\	-li	.	4f\	-li	4B-\	-li	4dd\	-li	.
4F\	et	.	4f\	et	4A\	et	4cc\	et	.
!	!	!	!LO:LB:g=original	!	!	!	!	!	!
=16	=16	=16	=16	=16	=16	=16	=16	=16	=16
4E\	ter-	.	4g\	ter-	4c\	ter-	8cc\L	ter-	.
.	.	.	.	.	.	.	8b-\J	.	.
4F\	-ra	.	4f\	-ra	4c\	-ra	4a\	-ra	.
!	!	!	!	!	!	!	!	!	!LO:DY:a
4r	.	.	[4a\	glo-	4r	.	[4ff\	glo-	p
=17	=17	=17	=17	=17	=17	=17	=17	=17	=17
!	!	!	!	!	!LO:TX:a:t=1.	!	!	!	!
4r	.	.	4.a\]	.	2.r	.	4.ff\]	.	.
4r	.	.	.	.	.	.	.	.	.
.	.	.	8cc\	.	.	.	8ee\	.	.
(4F\	glo-	p	8b-\	-ri-	.	.	8dd\	-ri-	.
.	.	.	8a\	-a	.	.	8cc\	-a	.
!	!	!	!	!	!	!	!LO:LB:g=original	!	!
=18	=18	=18	=18	=18	=18	=18	=18	=18	=18
4.F\)	.	.	4b-\	tu-	4r	.	4dd\	tu-	.
.	.	.	4a\	-a	4r	.	4cc\	-a	.
8FF/	-ri-	.	.	.	.	.	.	.	.
4FF/	-a	.	4a\	glo-	4f\	glo-	4r	.	.
=19	=19	=19	=19	=19	=19	=19	=19	=19	=19
!	!	!	!	!	!	!	!LO:TX:a:t=1.	!	!
4r	.	.	(4.a\	.	4.f\	.	2.r	.	.
4r	.	.	.	.	.	.	.	.	.
.	.	.	8cc\)	.	8e\	.	.	.	.
4F\	glo-	.	8b-\	-ri-	8d\	ri-	.	.	.
.	.	.	8a\	-a	8c\	-a	.	.	.
=20	=20	=20	=20	=20	=20	=20	=20	=20	=20
4.F\	.	.	4b-\	tu-	4d\	tu-	4r	.	.
.	.	.	4a\	-a	4c\	-a	4r	.	.
8FF/	-ri-	.	.	.	.	.	.	.	.
4FF/	-a	.	[4a\	glo-	[4c\	glo-	[4ff\	glo-	.
!	!	!	!	!	!LO:LB:g=original	!	!	!	!
=21	=21	=21	=21	=21	=21	=21	=21	=21	=21
!	!	!	!	!	!	!	!	!	!LO:DY:a
(4.F\	glo-	.	4.a\]	.	4.c\]	.	4.ff\]	.	<
8E\)	.	.	8a\	-ri-	8c\	-ri-	8ff\	-ri-	.
8D\	-ri-	.	4a\	-a	4d\	-a	4ff\	-a	[[
8C\	-a	.	.	.	.	.	.	.	.
!	!	!	!LO:LB:g=original	!	!	!	!	!	!
!LO:LB:g=original	!	!	!	!	!	!	!	!	!
=22	=22	=22	=22	=22	=22	=22	=22	=22	=22
2BB-/	tu-	.	2.g\	tu-	2d\	tu-	4ff\	tu-	.
.	.	.	.	.	.	.	8ee\L	.	.
.	.	.	.	.	.	.	8dd\J	.	.
4C/	.	.	.	.	4c\	.	4ee\	.	.
=23	=23	=23	=23	=23	=23	=23	=23	=23	=23
2F\	-a	.	2a\	-a	2c\	-a	2ff\	-a	.
4F\	O-	.	4a\	O-	4c\	O-	4ff\	O-	.
=24	=24	=24	=24	=24	=24	=24	=24	=24	=24
4.F\	-san-	.	4a\	-san-	4c\	-san-	4ff\	-san-	.
.	.	.	8a\	-na	4c\	-na	8ff\	-na	.
8E\	-na	.	8r	.	.	.	8r	.	.
8D\	in	.	4r	.	4d\	O-	4r	.	.
8C\	ex-	.	.	.	.	.	.	.	.
!	!	!	!	!	!	!	!LO:LB:g=original	!	!
=25	=25	=25	=25	=25	=25	=25	=25	=25	=25
!	!	!	!	!	!	!	!LO:TX:a:t=1.	!	!
8BB-/L	-cel-	.	4r	.	4.d\	-san-	2.r	.	.
8AA/J	.	.	.	.	.	.	.	.	.
4GG/	-sis	.	4r	.	.	.	.	.	.
.	.	.	.	.	8c\	-na	.	.	.
4r	.	.	4g\	O-	8B-\	in	.	.	.
.	.	.	.	.	8A\	ex-	.	.	.
=26	=26	=26	=26	=26	=26	=26	=26	=26	=26
4r	.	.	4.g\	-san-	8G/L	-cel-	4r	.	.
.	.	.	.	.	8F/J	.	.	.	.
4C/	in	.	.	.	4E/	-sis	4r	.	.
.	.	.	8f\	-na	.	.	.	.	.
4C/	ex-	.	8e\	in	4G/	ex-	[4cc\	O-	.
.	.	.	8d\	ex-	.	.	.	.	.
!	!	!	!	!	!LO:LB:g=original	!	!	!	!
=27	=27	=27	=27	=27	=27	=27	=27	=27	=27
!	!	!	!	!	!LO:TX:t=P:problem= mixed beam	!	!	!	!
2C/	-cel-	.	8e\L	-cel-	8G\L	-cel-	4.cc\]	-san-	.
.	.	.	8d\	.	8F\	.	.	.	.
.	.	.	8c\	.	8E\	.	.	.	.
.	.	.	8f\	.	8d\	.	8b-\	-na	.
4C/	-sis	.	8d\	.	8c\	.	8a\	in	.
.	.	.	8e\J	.	8B-\J	.	8g\	ex-	.
!	!	!	!LO:LB:g=original	!	!	!	!	!	!
=28	=28	=28	=28	=28	=28	=28	=28	=28	=28
4F\	De-	.	8f\	-sis	8A\	-sis	4a\	-cel-	.
.	.	.	8a\	O-	8c\	O-	.	.	.
8F\	-o	.	8f\	-san-	8A\	-san-	8a\	-sis	.
8r	.	.	8a\	-na	8c\	-na	8r	.	.
4r	.	.	8b-\	in	8d\	in	4r	.	.
.	.	.	8a\	ex-	8c\	ex-	.	.	.
!LO:LB:g=original	!	!	!	!	!	!	!	!	!
=29	=29	=29	=29	=29	=29	=29	=29	=29	=29
8r	.	.	8a\L	-cel-	[2c\	-cel-	8r	.	.
8F\	O-	.	8g\J	.	.	.	8cc\	O-	.
8C/	-san-	.	8e\L	.	.	.	4.cc\	-san-	.
8E\	-na	.	8g\J	.	.	.	.	.	.
8A\	in	.	8f\	-sis	8c\L]	.	.	.	.
8G\	ex-	.	8r	.	8B-\J	.	16dd\LL	-na	.
.	.	.	.	.	.	.	16ee\JJ	.	.
!	!	!	!	!	!	!	!LO:LB:g=original	!	!
=30	=30	=30	=30	=30	=30	=30	=30	=30	=30
4F\	-cel-	.	8r	.	8A\	-sis	8ff\	in	.
.	.	.	8a\	O-	8c\	O-	8ff\	ex-	.
8F\	-sis	.	8f\	-san-	8A\	-san-	4ff\	-cel-	.
8r	.	.	8a\	-na	8c\	-na	.	.	.
!	!	!	!	!	!	!	!LO:N:vis=4	!	!
4r	.	.	8b-\	in	8d\	in	8ff\	-sis	.
.	.	.	8a\	ex-	8c\	ex-	8r	.	.
!	!	!	!	!	!LO:LB:g=original	!	!	!	!
!	!	!	!LO:LB:g=original	!	!	!	!	!	!
=31	=31	=31	=31	=31	=31	=31	=31	=31	=31
8r	.	.	8a\L	-cel-	2c\	-cel-	8r	.	.
8E\	O-	.	8g\	.	.	.	8cc\	O-	.
8C/	-san-	.	8e\	.	.	.	4.cc\	-san-	.
8E\	-na	.	8g\J	.	.	.	.	.	.
8A\	in	.	8f\	-sis	8c\L	-sis	.	.	.
8G\	ex-	.	8r	.	8B-\J	.	16dd\LL	-na	.
.	.	.	.	.	.	.	16ee\JJ	.	.
=32	=32	=32	=32	=32	=32	=32	=32	=32	=32
(4.F\	-cel-	.	8a\	in	8A\	in	8ff\	in	.
.	.	.	8a\	ex-	8c\	ex-	8ff\	ex-	.
.	.	.	4a\	-cel-	4c\	-cel-	4ff\	-cel-	.
8E\)	.	.	.	.	.	.	.	.	.
8D/L	-sis	.	4a\	-sis	4d\	-sis	8ff\	-sis	.
8C/J	.	.	.	.	.	.	8r	.	.
=33	=33	=33	=33	=33	=33	=33	=33	=33	=33
2.BBn/	De-	.	2.g\	De-	2.d\	De-	2.ff\	De-	.
!LO:LB:g=original	!	!	!	!	!	!	!	!	!
=34	=34	=34	=34	=34	=34	=34	=34	=34	=34
2.D/	.	.	2.a\	.	2.c\	.	2.ff\	.	.
!	!	!	!	!	!	!	!LO:LB:g=original	!	!
=35	=35	=35	=35	=35	=35	=35	=35	=35	=35
2.C/	.	.	2.g\	.	2.B-\	.	4ff\	.	.
.	.	.	.	.	.	.	8ee\L	.	.
.	.	.	.	.	.	.	8dd\J	.	.
.	.	.	.	.	.	.	4ee\	.	.
=36	=36	=36	=36	=36	=36	=36	=36	=36	=36
2FF/ 2F	-o	.	2f\	-o.	2A\	-o.	2ff\	-o.	.
4r	.	.	4r	.	4r	.	4r	.	.
==	==	==	==	==	==	==	==	==	==
*-	*-	*-	*-	*-	*-	*-	*-	*-	*-
!!!system-decoration: [(s1,s2,s3,s4)]
!!!ENC: Berenika Jozajtis
!!!END: 2020-12-08
!!!ENC: Natalia Wrzos
!!!END: 2022-01-07
